svg/fluentui-system-icons/ic_fluent_delete_off_20_filled.svg

<svg width="20" height="20" viewBox="0 0 20 20" fill="none" xmlns="http://www.w3.org/2000/svg">
<path d="M3.29289 4L2.14645 2.85355C1.95118 2.65829 1.95118 2.34171 2.14645 2.14645C2.34171 1.95118 2.65829 1.95118 2.85355 2.14645L17.8536 17.1464C18.0488 17.3417 18.0488 17.6583 17.8536 17.8536C17.6583 18.0488 17.3417 18.0488 17.1464 17.8536L15.1478 15.8549C14.7765 17.1075 13.6188 18 12.2719 18H7.72813C6.20431 18 4.92256 16.8576 4.7479 15.3439L3.55437 5H2.5C2.22386 5 2 4.77614 2 4.5C2 4.22386 2.22386 4 2.5 4H3.29289ZM12 12.7071L11 11.7071V14C11 14.2761 11.2239 14.5 11.5 14.5C11.7761 14.5 12 14.2761 12 14V12.7071ZM9 9.70711L8 8.70711V14C8 14.2761 8.22386 14.5 8.5 14.5C8.77614 14.5 9 14.2761 9 14V9.70711ZM12 8V9.87891L15.481 13.3599L16.4456 5H17.5C17.7761 5 18 4.77614 18 4.5C18 4.22386 17.7761 4 17.5 4H12.5C12.5 2.61929 11.3807 1.5 10 1.5C8.61929 1.5 7.5 2.61929 7.5 4H6.12109L11 8.87891V8C11 7.72386 11.2239 7.5 11.5 7.5C11.7761 7.5 12 7.72386 12 8ZM11.5 4H8.5C8.5 3.17157 9.17157 2.5 10 2.5C10.8284 2.5 11.5 3.17157 11.5 4Z" fill="#212121"/>
</svg>

<svg xmlns="http://www.w3.org/2000/svg" width="20" height="20"><path d="M3.293 4 2.146 2.854a.5.5 0 1 1 .708-.708l15 15a.5.5 0 0 1-.708.708l-1.998-2A3 3 0 0 1 12.272 18H7.728a3 3 0 0 1-2.98-2.656L3.554 5H2.5a.5.5 0 0 1 0-1h.793ZM12 12.707l-1-1V14a.5.5 0 0 0 1 0v-1.293Zm-3-3-1-1V14a.5.5 0 0 0 1 0V9.707ZM12 8v1.879l3.481 3.48L16.446 5H17.5a.5.5 0 0 0 0-1h-5a2.5 2.5 0 0 0-5 0H6.121L11 8.879V8a.5.5 0 0 1 1 0Zm-.5-4h-3a1.5 1.5 0 1 1 3 0Z"/></svg>
